icons/copy-outline.svg

<svg xmlns="http://www.w3.org/2000/svg" width="24" height="24" viewBox="0 0 24 24">
    <path fill="#3A3A47" fill-rule="evenodd" d="M4 2h10c1.273 0 1.938.607 1.996 1.822L16 4v2h4c1.273 0 1.938.607 1.996 1.822L22 8v12c0 1.334-.667 2-2 2H10c-1.273 0-1.938-.607-1.996-1.822L8 20v-2H4c-1.273 0-1.938-.607-1.996-1.822L2 16V4c0-1.273.607-1.938 1.822-1.996L4 2h10zm16 6H10v12h10V8zm-6-4H4v12h4V8c0-1.333.667-2 2-2h4V4z"/>
</svg>

<svg width="24" height="24" viewBox="0 0 24 24" fill="none" xmlns="http://www.w3.org/2000/svg">
<path d="M16 6H20C21.333 6 22 6.667 22 8V20C22 21.334 21.333 22 20 22H10C8.667 22 8 21.334 8 20V18H4C2.667 18 2 17.333 2 16V4C2 2.667 2.667 2 4 2H14C15.333 2 16 2.667 16 4V6ZM10 20H20V8H10V20ZM8 16V8C8 6.667 8.667 6 10 6H14V4H4V16H8Z" fill="#3A3A47"/>
</svg>
